#define connection_width 128
#define connection_height 64
static unsigned char connection_bits[] = {
   0xff, 0xff, 0xff, 0xff, 0xff, 0xff, 0xff, 0xff, 0xff, 0xff, 0xff, 0xff,
   0xff, 0xff, 0xff, 0xff, 0xff, 0xff, 0xff, 0xff, 0xff, 0xff, 0xff, 0xff,
   0xff, 0xff, 0xff, 0xff, 0xff, 0xff, 0xff, 0xff, 0xff, 0xff, 0xff, 0xff,
   0xff, 0xff, 0xff, 0xff, 0xff, 0xff, 0xff, 0xff, 0xff, 0xff, 0xff, 0xff,
   0xff, 0xff, 0xff, 0xff, 0xff, 0xff, 0xff, 0xff, 0xff, 0xff, 0xff, 0xff,
   0xff, 0xff, 0xff, 0xff, 0xff, 0xff, 0xff, 0xff, 0xff, 0xff, 0xff, 0xff,
   0xff, 0xff, 0xff, 0xff, 0xff, 0xff, 0xff, 0xff, 0xff, 0xff, 0xff, 0xff,
   0xff, 0xff, 0xff, 0xff, 0xff, 0xff, 0xff, 0xff, 0xff, 0xff, 0xff, 0xff,
   0xff, 0xff, 0xff, 0xff, 0xff, 0xff, 0xff, 0xff, 0xff, 0xff, 0xff, 0xff,
   0xff, 0xff, 0xff, 0xff, 0xff, 0xff, 0xff, 0xff, 0xff, 0xff, 0xff, 0xff,
   0xff, 0xff, 0xff, 0xff, 0xff, 0xff, 0xff, 0xff, 0xff, 0xff, 0xff, 0xff,
   0xff, 0xff, 0xff, 0xff, 0xff, 0xff, 0xff, 0xff, 0xff, 0xff, 0xff, 0xff,
   0xff, 0x7f, 0xe0, 0xff, 0xff, 0xff, 0xff, 0xff, 0xff, 0xff, 0xff, 0xf1,
   0xff, 0xff, 0xff, 0xff, 0xff, 0x3f, 0x80, 0xff, 0xff, 0xff, 0xff, 0xff,
   0xff, 0xff, 0xc7, 0xf1, 0xff, 0xff, 0xff, 0xff, 0xff, 0x1f, 0x80, 0xff,
   0xff, 0xff, 0xff, 0xff, 0xff, 0xff, 0xc3, 0xf1, 0xff, 0xff, 0xff, 0xff,
   0xff, 0x1f, 0x0e, 0xff, 0xff, 0xff, 0xff, 0xff, 0xff, 0xff, 0xc7, 0xff,
   0xff, 0xff, 0xff, 0xff, 0xff, 0x1f, 0x1f, 0x0f, 0x1e, 0xe0, 0x11, 0x3e,
   0xf0, 0x03, 0x81, 0xf1, 0xc0, 0x03, 0xfc, 0xff, 0xff, 0x1f, 0xff, 0x03,
   0x3c, 0xc0, 0x01, 0x1c, 0xe0, 0x01, 0x82, 0x71, 0x80, 0x03, 0xfc, 0xff,
   0xff, 0x1f, 0xff, 0x03, 0x38, 0x80, 0x01, 0x1c, 0xe0, 0x00, 0x83, 0x31,
   0x80, 0x03, 0xf8, 0xff, 0xff, 0x1f, 0xff, 0xe3, 0x18, 0x86, 0x71, 0x0c,
   0xc7, 0xf8, 0xc7, 0x31, 0x0e, 0xe3, 0xf8, 0xff, 0xff, 0x1f, 0xff, 0xe3,
   0x38, 0x8e, 0x71, 0x1c, 0xc0, 0xf8, 0xc3, 0x31, 0x8e, 0xe3, 0xf8, 0xff,
   0xff, 0x1f, 0x9f, 0xe3, 0x18, 0x86, 0x71, 0x08, 0xc0, 0xf8, 0xc7, 0x31,
   0x0e, 0xe3, 0xf8, 0xff, 0xff, 0x1f, 0x0e, 0xe3, 0x38, 0x8e, 0x71, 0x9c,
   0xea, 0xf8, 0xc3, 0x31, 0x8e, 0xe3, 0xf8, 0xff, 0xff, 0x1f, 0x84, 0x43,
   0x18, 0x86, 0x71, 0x18, 0xf7, 0x90, 0xc7, 0x31, 0x84, 0xe3, 0xf8, 0xff,
   0xff, 0x3f, 0x80, 0x03, 0x38, 0x8e, 0x71, 0x1c, 0xe0, 0x00, 0x86, 0x31,
   0x80, 0xe3, 0xf8, 0xff, 0xff, 0x7f, 0xc0, 0x07, 0x1c, 0x86, 0x71, 0x38,
   0xe0, 0x01, 0x87, 0x71, 0xc0, 0xe3, 0xf8, 0xff, 0xff, 0xff, 0xfb, 0xbf,
   0xff, 0xdf, 0xfb, 0xff, 0xfd, 0xd7, 0xdf, 0xfb, 0xf5, 0xf7, 0xfa, 0xff,
   0xff, 0xff, 0xff, 0xff, 0xff, 0xff, 0xff, 0xff, 0xff, 0xff, 0xff, 0xff,
   0xff, 0xff, 0xff, 0xff, 0xff, 0xff, 0xff, 0xff, 0xff, 0xff, 0xff, 0xff,
   0xff, 0xff, 0xff, 0xff, 0xff, 0xff, 0xff, 0xff, 0xff, 0xf3, 0xff, 0xff,
   0xff, 0xff, 0xff, 0xff, 0xff, 0xff, 0xff, 0xff, 0xff, 0xff, 0xcf, 0xff,
   0xff, 0xf8, 0xff, 0xff, 0xff, 0xff, 0xff, 0xff, 0xff, 0xff, 0xff, 0xff,
   0xff, 0xff, 0x1f, 0xff, 0x3f, 0xf0, 0xff, 0xff, 0xff, 0xff, 0xff, 0xff,
   0xff, 0xff, 0xff, 0xff, 0xff, 0xff, 0x1f, 0xfc, 0x1f, 0xf8, 0xff, 0xff,
   0xff, 0xff, 0xff, 0xff, 0x0f, 0xfc, 0xff, 0xff, 0xff, 0xff, 0x0f, 0xf8,
   0x07, 0xf8, 0xff, 0xff, 0xff, 0xff, 0xff, 0xff, 0x03, 0xf0, 0xff, 0xff,
   0xff, 0xff, 0x1f, 0xe0, 0x03, 0xfe, 0xff, 0xff, 0xff, 0xff, 0xff, 0xff,
   0x01, 0xe0, 0xff, 0xff, 0xff, 0xff, 0x7f, 0x80, 0x03, 0xfe, 0xff, 0xff,
   0xff, 0xff, 0xff, 0xff, 0x00, 0xe0, 0xff, 0xff, 0xff, 0xff, 0x7f, 0xc0,
   0x0f, 0xf8, 0xff, 0xff, 0xff, 0xff, 0xff, 0x7f, 0xf0, 0xc1, 0xff, 0xff,
   0xff, 0xff, 0x1f, 0xe0, 0x1f, 0xf8, 0xff, 0xff, 0xff, 0xff, 0xff, 0x3f,
   0xf8, 0xc3, 0xff, 0xff, 0xff, 0xff, 0x1f, 0xf8, 0x7f, 0xf0, 0xff, 0xff,
   0xff, 0xff, 0xff, 0x1f, 0xf8, 0xc7, 0xff, 0xff, 0xff, 0xff, 0x0f, 0xfe,
   0xff, 0xf8, 0xff, 0xff, 0xff, 0xff, 0xff, 0x0f, 0xfe, 0xc7, 0xff, 0xff,
   0xff, 0xff, 0x1f, 0xff, 0xff, 0xfb, 0xff, 0xff, 0xff, 0xff, 0xff, 0x07,
   0xff, 0xc7, 0xff, 0xff, 0xff, 0xff, 0xdf, 0xff, 0xff, 0xff, 0xff, 0xff,
   0xff, 0xff, 0xff, 0x83, 0xff, 0xc3, 0xff, 0xff, 0xff, 0xff, 0xff, 0xff,
   0xff, 0xff, 0xff, 0xff, 0xff, 0xff, 0xff, 0x81, 0xff, 0xc1, 0xff, 0xff,
   0xff, 0xff, 0xff, 0xff, 0xff, 0xff, 0xff, 0xff, 0xff, 0xff, 0xff, 0xe1,
   0xfd, 0xe0, 0xff, 0xff, 0xff, 0xff, 0xff, 0xff, 0xff, 0xff, 0xff, 0xff,
   0xff, 0xff, 0xff, 0xe1, 0x78, 0xe0, 0xff, 0xff, 0xff, 0xff, 0xff, 0xff,
   0xff, 0xff, 0xff, 0xff, 0xff, 0xff, 0xff, 0x70, 0x70, 0xf0, 0xff, 0xff,
   0xff, 0xff, 0xff, 0xff, 0xff, 0xff, 0xff, 0xff, 0xff, 0xff, 0xdf, 0xf1,
   0x70, 0xf8, 0xff, 0xff, 0xff, 0xff, 0xff, 0xff, 0xff, 0xff, 0xff, 0xff,
   0xff, 0xff, 0xcf, 0xe1, 0x60, 0xfc, 0xff, 0xff, 0xff, 0xff, 0xff, 0xff,
   0xff, 0xff, 0xff, 0xff, 0xff, 0xff, 0xc7, 0xe1, 0x61, 0xfe, 0xff, 0xff,
   0xff, 0xff, 0xff, 0xff, 0xff, 0xff, 0xff, 0xff, 0xff, 0xff, 0x83, 0xc1,
   0xe1, 0xff, 0xff, 0xff, 0xff, 0xff, 0xff, 0xff, 0xff, 0xff, 0xff, 0xff,
   0xff, 0xff, 0xc1, 0xc3, 0xe1, 0xff, 0xff, 0xff, 0xff, 0xff, 0xff, 0xff,
   0xff, 0xff, 0xff, 0xff, 0xff, 0xff, 0xe0, 0xe7, 0xe0, 0xff, 0xff, 0xff,
   0xff, 0xff, 0xff, 0xff, 0xff, 0xff, 0xff, 0xff, 0xff, 0xff, 0xe0, 0x7f,
   0xf0, 0xff, 0xff, 0xff, 0xff, 0xff, 0xff, 0xff, 0xff, 0xff, 0xff, 0xff,
   0xff, 0x7f, 0xf8, 0x3f, 0xf0, 0xff, 0xff, 0xff, 0xff, 0xff, 0xff, 0xff,
   0xff, 0xff, 0xff, 0xff, 0xff, 0x7f, 0xf8, 0x1f, 0xf8, 0xff, 0xff, 0xff,
   0xff, 0xff, 0xff, 0xff, 0xff, 0xff, 0xff, 0xff, 0xff, 0x7f, 0xf8, 0x0f,
   0xfc, 0xff, 0xff, 0xff, 0xff, 0xff, 0xff, 0xff, 0xff, 0xff, 0xff, 0xff,
   0xff, 0x7f, 0xf8, 0x07, 0xfe, 0xff, 0xff, 0xff, 0xff, 0xff, 0xff, 0xff,
   0xff, 0xff, 0xff, 0xff, 0xff, 0x7f, 0xf8, 0x03, 0xff, 0xff, 0xff, 0xff,
   0xff, 0xff, 0xff, 0xff, 0xff, 0xff, 0xff, 0xff, 0xff, 0x7f, 0xf0, 0x81,
   0xff, 0xff, 0xff, 0xff, 0xff, 0xff, 0xff, 0xff, 0xff, 0xff, 0xff, 0xff,
   0xff, 0xff, 0xe0, 0xc0, 0xff, 0xff, 0xff, 0xff, 0xff, 0xff, 0xff, 0xff,
   0xff, 0xff, 0xff, 0xff, 0xff, 0xff, 0x00, 0xe0, 0xff, 0xff, 0xff, 0xff,
   0xff, 0xff, 0xff, 0xff, 0xff, 0xff, 0xff, 0xff, 0xff, 0xff, 0x01, 0xf0,
   0xff, 0xff, 0xff, 0xff, 0xff, 0xff, 0xff, 0xff, 0xff, 0xff, 0xff, 0xff,
   0xff, 0xff, 0x07, 0xfc, 0xff, 0xff, 0xff, 0xff, 0xff, 0xff, 0xff, 0xff,
   0xff, 0xff, 0xff, 0xff, 0xff, 0xff, 0xff, 0xff, 0xff, 0xff, 0xff, 0xff,
   0xff, 0xff, 0xff, 0xff, 0xff, 0xff, 0xff, 0xff, 0xff, 0xff, 0xff, 0xff,
   0xff, 0xff, 0xff, 0xff, 0xff, 0xff, 0xff, 0xff, 0xff, 0xff, 0xff, 0xff,
   0xff, 0xff, 0xff, 0xff, 0xff, 0xff, 0xff, 0xff, 0xff, 0xff, 0xff, 0xff,
   0xff, 0xff, 0xff, 0xff, 0xff, 0xff, 0xff, 0xff, 0xff, 0xff, 0xff, 0xff,
   0xff, 0xff, 0xff, 0xff };
