#define power_off_width 128
#define power_off_height 64
static unsigned char power_off_bits[] = {
   0xff, 0xff, 0xff, 0xff, 0xff, 0xff, 0xff, 0xff, 0xff, 0xff, 0xff, 0xff,
   0xff, 0xff, 0xff, 0xff, 0xff, 0xff, 0xff, 0xff, 0xff, 0xff, 0xff, 0xff,
   0xff, 0xff, 0xff, 0xff, 0xff, 0xff, 0xff, 0xff, 0xff, 0xff, 0xff, 0xff,
   0xff, 0xff, 0xff, 0xff, 0xff, 0xff, 0xff, 0xff, 0xff, 0xff, 0xff, 0xff,
   0xff, 0xff, 0xff, 0xff, 0xff, 0xff, 0xff, 0xff, 0xff, 0xff, 0xff, 0xff,
   0xff, 0xff, 0xff, 0xff, 0xff, 0xff, 0xff, 0xff, 0xff, 0xff, 0xff, 0xff,
   0xff, 0xff, 0xff, 0xff, 0xff, 0xff, 0xff, 0xff, 0xff, 0xff, 0xff, 0xff,
   0xff, 0xff, 0xff, 0xff, 0xff, 0xff, 0xff, 0xff, 0xff, 0xff, 0xff, 0xff,
   0xff, 0xff, 0xff, 0xff, 0xff, 0xff, 0xff, 0xff, 0xff, 0xff, 0xff, 0xff,
   0xff, 0xff, 0xff, 0xff, 0xff, 0xff, 0xff, 0xff, 0xff, 0xff, 0xff, 0xff,
   0xff, 0xff, 0xff, 0xff, 0xff, 0xff, 0xff, 0xff, 0xff, 0xff, 0xff, 0xff,
   0xff, 0xff, 0xff, 0xff, 0xff, 0xff, 0xff, 0xff, 0xff, 0xff, 0xff, 0xff,
   0xff, 0xff, 0x1f, 0xc0, 0xff, 0xff, 0xff, 0xff, 0xff, 0xff, 0xff, 0xff,
   0xc3, 0xf0, 0xff, 0xff, 0xff, 0xff, 0x1f, 0x80, 0xff, 0xff, 0xff, 0xff,
   0xff, 0xff, 0xff, 0xff, 0xc1, 0xe0, 0xff, 0xff, 0xff, 0xff, 0x1f, 0x80,
   0xff, 0xff, 0xff, 0xff, 0xff, 0xff, 0xff, 0xff, 0xc1, 0xf0, 0xff, 0xff,
   0xff, 0xff, 0x1f, 0x0f, 0xff, 0xff, 0xff, 0xff, 0xff, 0xff, 0xff, 0xff,
   0x71, 0xf8, 0xff, 0xff, 0xff, 0xff, 0x1f, 0x0f, 0x03, 0xc7, 0x71, 0x1c,
   0x78, 0x84, 0x7f, 0xe0, 0x00, 0xe0, 0xff, 0xff, 0xff, 0xff, 0x1f, 0x0f,
   0x01, 0xc6, 0x71, 0x0c, 0x78, 0xc0, 0x3f, 0xc0, 0x40, 0xf0, 0xff, 0xff,
   0xff, 0xff, 0x1f, 0x80, 0x01, 0x8c, 0x61, 0x0c, 0x70, 0xe0, 0x1f, 0xc0,
   0x50, 0xf0, 0xff, 0xff, 0xff, 0xff, 0x1f, 0x80, 0x70, 0x8c, 0x20, 0xc6,
   0x73, 0xfc, 0x1f, 0x87, 0xf1, 0xf8, 0xff, 0xff, 0xff, 0xff, 0x1f, 0xe0,
   0x71, 0x8c, 0x20, 0x06, 0x60, 0xfc, 0x1f, 0xc7, 0x71, 0xf8, 0xff, 0xff,
   0xff, 0xff, 0x1f, 0xff, 0x70, 0x1c, 0x04, 0x06, 0x60, 0xfc, 0x1f, 0x87,
   0xf1, 0xf8, 0xff, 0xff, 0xff, 0xff, 0x1f, 0xff, 0x71, 0x1c, 0x04, 0x46,
   0x7d, 0xfc, 0x1f, 0xc7, 0xf1, 0xf8, 0xff, 0xff, 0xff, 0xff, 0x1f, 0xff,
   0x11, 0x1c, 0x0c, 0x87, 0x7b, 0xfc, 0x1f, 0xc2, 0x71, 0xf8, 0xff, 0xff,
   0xff, 0xff, 0x1f, 0xff, 0x01, 0x1e, 0x0e, 0x0f, 0x70, 0xfc, 0x3f, 0xc0,
   0xf1, 0xf8, 0xff, 0xff, 0xff, 0xff, 0x1f, 0xff, 0x03, 0x3e, 0x9e, 0x1f,
   0x70, 0xfc, 0x3f, 0xe0, 0x71, 0xf8, 0xff, 0xff, 0xff, 0xff, 0xbf, 0xff,
   0xdf, 0xff, 0xbf, 0xff, 0xfe, 0xfd, 0xff, 0xfa, 0xfb, 0xff, 0xff, 0xff,
   0xff, 0xff, 0xff, 0xff, 0xff, 0xff, 0xff, 0xff, 0xff, 0xff, 0xff, 0xff,
   0xff, 0xff, 0xff, 0xff, 0xff, 0xff, 0xff, 0xff, 0xff, 0xff, 0xff, 0xff,
   0xff, 0xff, 0xff, 0xff, 0xff, 0xff, 0xff, 0xff, 0xff, 0xfb, 0xff, 0xff,
   0xff, 0xff, 0xff, 0xff, 0xff, 0xff, 0xff, 0xff, 0xff, 0xff, 0xcf, 0xff,
   0xff, 0xf0, 0xff, 0xff, 0xff, 0xff, 0xff, 0xff, 0xff, 0xff, 0xff, 0xff,
   0xff, 0xff, 0x1f, 0xff, 0x3f, 0xf8, 0xff, 0xff, 0xff, 0xff, 0xff, 0xff,
   0xff, 0xff, 0xff, 0xff, 0xff, 0xff, 0x1f, 0xfc, 0x1f, 0xf0, 0xff, 0xff,
   0xff, 0xff, 0xff, 0xff, 0xff, 0xff, 0xff, 0xff, 0xff, 0xff, 0x0f, 0xf8,
   0x07, 0xf8, 0xff, 0xff, 0xff, 0xff, 0xff, 0xff, 0xff, 0xff, 0xff, 0xff,
   0xff, 0xff, 0x1f, 0xe0, 0x03, 0xfe, 0xff, 0xff, 0xff, 0xff, 0xff, 0x0f,
   0xff, 0xff, 0xff, 0xff, 0xff, 0xff, 0x7f, 0x80, 0x03, 0xfe, 0xff, 0xff,
   0xff, 0xff, 0xff, 0x07, 0xfe, 0xff, 0xff, 0xff, 0xff, 0xff, 0x7f, 0xc0,
   0x0f, 0xf8, 0xff, 0xff, 0xff, 0xff, 0xff, 0x0f, 0xff, 0xff, 0xff, 0xff,
   0xff, 0xff, 0x1f, 0xe0, 0x1f, 0xf8, 0xff, 0xff, 0xff, 0xff, 0x9f, 0x07,
   0x9e, 0xff, 0xff, 0xff, 0xff, 0xff, 0x1f, 0xf8, 0x7f, 0xf0, 0xff, 0xff,
   0xff, 0xff, 0x0f, 0x0f, 0x0f, 0xff, 0xff, 0xff, 0xff, 0xff, 0x0f, 0xfe,
   0xff, 0xf8, 0xff, 0xff, 0xff, 0xff, 0x07, 0x07, 0x0e, 0xfe, 0xff, 0xff,
   0xff, 0xff, 0x1f, 0xff, 0xff, 0xfb, 0xff, 0xff, 0xff, 0xff, 0x03, 0x0e,
   0x07, 0xfc, 0xff, 0xff, 0xff, 0xff, 0xdf, 0xff, 0xff, 0xff, 0xff, 0xff,
   0xff, 0xff, 0x01, 0x07, 0x0e, 0xf8, 0xff, 0xff, 0xff, 0xff, 0xff, 0xff,
   0xff, 0xff, 0xff, 0xff, 0xff, 0xff, 0x81, 0x0f, 0x1f, 0xf8, 0xff, 0xff,
   0xff, 0xff, 0xff, 0xff, 0xff, 0xff, 0xff, 0xff, 0xff, 0xff, 0xc0, 0x07,
   0x3e, 0xf0, 0xff, 0xff, 0xff, 0xff, 0xff, 0xff, 0xff, 0xff, 0xff, 0xff,
   0xff, 0xff, 0xe0, 0x0f, 0x7f, 0xf0, 0xff, 0xff, 0xff, 0xff, 0xff, 0xff,
   0xff, 0xff, 0xff, 0xff, 0xff, 0xff, 0xe0, 0x07, 0x7e, 0xf0, 0xff, 0xff,
   0xff, 0xff, 0xff, 0xff, 0xff, 0xff, 0xff, 0xff, 0xff, 0x7f, 0xf0, 0x0f,
   0xff, 0xe0, 0xff, 0xff, 0xff, 0xff, 0xff, 0xff, 0xff, 0xff, 0xff, 0xff,
   0xff, 0x7f, 0xf0, 0x07, 0xfe, 0xe0, 0xff, 0xff, 0xff, 0xff, 0xff, 0xff,
   0xff, 0xff, 0xff, 0xff, 0xff, 0x7f, 0xf0, 0x0f, 0xff, 0xe0, 0xff, 0xff,
   0xff, 0xff, 0xff, 0xff, 0xff, 0xff, 0xff, 0xff, 0xff, 0x7f, 0xf0, 0x07,
   0xfe, 0xe0, 0xff, 0xff, 0xff, 0xff, 0xff, 0xff, 0xff, 0xff, 0xff, 0xff,
   0xff, 0x7f, 0xf0, 0x0f, 0xff, 0xe0, 0xff, 0xff, 0xff, 0xff, 0xff, 0xff,
   0xff, 0xff, 0xff, 0xff, 0xff, 0x7f, 0xf0, 0x8f, 0xff, 0xe0, 0xff, 0xff,
   0xff, 0xff, 0xff, 0xff, 0xff, 0xff, 0xff, 0xff, 0xff, 0x7f, 0xf0, 0xff,
   0xff, 0xe0, 0xff, 0xff, 0xff, 0xff, 0xff, 0xff, 0xff, 0xff, 0xff, 0xff,
   0xff, 0x7f, 0xe0, 0xff, 0x7f, 0xe0, 0xff, 0xff, 0xff, 0xff, 0xff, 0xff,
   0xff, 0xff, 0xff, 0xff, 0xff, 0xff, 0xe0, 0xff, 0x7f, 0xf0, 0xff, 0xff,
   0xff, 0xff, 0xff, 0xff, 0xff, 0xff, 0xff, 0xff, 0xff, 0xff, 0xc0, 0xff,
   0x3f, 0xf0, 0xff, 0xff, 0xff, 0xff, 0xff, 0xff, 0xff, 0xff, 0xff, 0xff,
   0xff, 0xff, 0xc0, 0xff, 0x3f, 0xf0, 0xff, 0xff, 0xff, 0xff, 0xff, 0xff,
   0xff, 0xff, 0xff, 0xff, 0xff, 0xff, 0x81, 0xff, 0x1f, 0xf8, 0xff, 0xff,
   0xff, 0xff, 0xff, 0xff, 0xff, 0xff, 0xff, 0xff, 0xff, 0xff, 0x03, 0xfe,
   0x07, 0xfc, 0xff, 0xff, 0xff, 0xff, 0xff, 0xff, 0xff, 0xff, 0xff, 0xff,
   0xff, 0xff, 0x03, 0xf8, 0x01, 0xfc, 0xff, 0xff, 0xff, 0xff, 0xff, 0xff,
   0xff, 0xff, 0xff, 0xff, 0xff, 0xff, 0x07, 0x00, 0x00, 0xfe, 0xff, 0xff,
   0xff, 0xff, 0xff, 0xff, 0xff, 0xff, 0xff, 0xff, 0xff, 0xff, 0x0f, 0x00,
   0x00, 0xff, 0xff, 0xff, 0xff, 0xff, 0xff, 0xff, 0xff, 0xff, 0xff, 0xff,
   0xff, 0xff, 0x3f, 0x00, 0xc0, 0xff, 0xff, 0xff, 0xff, 0xff, 0xff, 0xff,
   0xff, 0xff, 0xff, 0xff, 0xff, 0xff, 0x7f, 0x00, 0xe0, 0xff, 0xff, 0xff,
   0xff, 0xff, 0xff, 0xff, 0xff, 0xff, 0xff, 0xff, 0xff, 0xff, 0xff, 0x03,
   0xfc, 0xff, 0xff, 0xff, 0xff, 0xff, 0xff, 0xff, 0xff, 0xff, 0xff, 0xff,
   0xff, 0xff, 0xff, 0xff, 0xff, 0xff, 0xff, 0xff, 0xff, 0xff, 0xff, 0xff,
   0xff, 0xff, 0xff, 0xff, 0xff, 0xff, 0xff, 0xff, 0xff, 0xff, 0xff, 0xff,
   0xff, 0xff, 0xff, 0xff };
