#define boot1_width 128
#define boot1_height 64
static unsigned char boot1_bits[] = {
   0xff, 0xff, 0xff, 0xff, 0xff, 0xff, 0xff, 0xff, 0xff, 0xff, 0xff, 0xff,
   0xff, 0xff, 0xff, 0xff, 0xff, 0xff, 0xff, 0xff, 0xff, 0xff, 0xff, 0xff,
   0xff, 0xff, 0xff, 0xff, 0xff, 0xff, 0xff, 0xff, 0xff, 0xff, 0xff, 0xff,
   0xff, 0xf6, 0xff, 0xff, 0xff, 0xff, 0xff, 0xff, 0xff, 0xff, 0xff, 0xff,
   0xff, 0xff, 0xff, 0xff, 0xef, 0xb2, 0xff, 0xff, 0xff, 0xff, 0xff, 0xff,
   0xff, 0xff, 0xff, 0xfd, 0xff, 0xff, 0xff, 0xff, 0xef, 0x9a, 0xff, 0xff,
   0xff, 0xff, 0xff, 0xff, 0xff, 0xff, 0xff, 0xfa, 0xff, 0xff, 0xff, 0xff,
   0xcf, 0xd0, 0xff, 0xff, 0xff, 0xff, 0xff, 0xff, 0xff, 0xff, 0xff, 0xfd,
   0xff, 0xff, 0xff, 0xff, 0x1f, 0xc0, 0xff, 0xff, 0xff, 0xff, 0xff, 0xff,
   0xff, 0xff, 0xff, 0xfa, 0xff, 0xff, 0xff, 0xff, 0x1f, 0x80, 0xff, 0xff,
   0xff, 0xff, 0xff, 0xff, 0xff, 0xff, 0xff, 0xfd, 0xff, 0xff, 0xff, 0xff,
   0x0f, 0x00, 0xfe, 0xff, 0xff, 0xff, 0xff, 0xff, 0xff, 0xff, 0xff, 0xfa,
   0xff, 0xff, 0xff, 0xff, 0x07, 0x80, 0xff, 0xff, 0xff, 0xff, 0xff, 0xff,
   0xff, 0xff, 0xff, 0xfd, 0xff, 0xff, 0xff, 0xff, 0x07, 0x88, 0xff, 0xef,
   0xff, 0xff, 0xff, 0xff, 0xff, 0xff, 0xff, 0xfa, 0xff, 0xff, 0xff, 0xff,
   0x07, 0x9c, 0xff, 0xf7, 0xff, 0xff, 0xff, 0xff, 0xff, 0xff, 0xff, 0xfd,
   0x1f, 0x00, 0xfc, 0xff, 0x07, 0x88, 0xff, 0xeb, 0xff, 0xff, 0xff, 0xff,
   0xff, 0xff, 0xff, 0xfa, 0x3f, 0x00, 0xfe, 0xff, 0x07, 0x80, 0xff, 0xf7,
   0xff, 0xff, 0xff, 0xff, 0xff, 0xff, 0xff, 0xfd, 0xff, 0xff, 0xff, 0xff,
   0x0f, 0xc1, 0xff, 0xeb, 0xff, 0xeb, 0xaf, 0xff, 0xfa, 0xfe, 0xff, 0xfa,
   0xff, 0xff, 0xff, 0xff, 0x1f, 0xff, 0xff, 0xf7, 0xff, 0xf5, 0x57, 0x7f,
   0x7d, 0xf5, 0x5f, 0xfd, 0xff, 0xff, 0x0f, 0x00, 0x38, 0xf8, 0xff, 0xeb,
   0xff, 0xea, 0xab, 0xbe, 0xba, 0xea, 0xaf, 0xfa, 0x00, 0xe0, 0x07, 0x00,
   0xf0, 0xff, 0xff, 0xf7, 0x7f, 0xd7, 0x55, 0xdf, 0x75, 0xd5, 0xd7, 0xfd,
   0x01, 0xf0, 0x03, 0x00, 0xc0, 0xff, 0xff, 0xeb, 0xbf, 0xef, 0xbb, 0xee,
   0xfb, 0xaa, 0xeb, 0xfa, 0xff, 0xff, 0x01, 0x00, 0x80, 0xff, 0xff, 0xf7,
   0x5f, 0xf7, 0x5d, 0xd7, 0x7d, 0xdd, 0xf7, 0xfd, 0xff, 0xff, 0x00, 0x00,
   0x00, 0xff, 0xff, 0xeb, 0xbf, 0xfa, 0xbe, 0xae, 0xfe, 0xae, 0xeb, 0xfa,
   0xff, 0x7f, 0x00, 0x00, 0x00, 0xff, 0xff, 0xf7, 0x5f, 0xfd, 0x5d, 0x57,
   0x7f, 0xdd, 0xf7, 0xfd, 0xff, 0x3f, 0xc0, 0x07, 0x00, 0xff, 0xff, 0xeb,
   0xba, 0xff, 0xbe, 0xee, 0xff, 0xbe, 0xeb, 0xfb, 0xff, 0x1f, 0xe0, 0x0f,
   0x00, 0xff, 0xff, 0x57, 0x55, 0xff, 0x5d, 0xd7, 0x7f, 0x5d, 0xf7, 0xf5,
   0xff, 0x0f, 0xf0, 0x07, 0x00, 0xfe, 0xff, 0xab, 0xba, 0xae, 0xaa, 0xae,
   0xeb, 0xbe, 0xab, 0xfa, 0xff, 0x0f, 0xf8, 0x03, 0x00, 0xfc, 0xff, 0x57,
   0x7f, 0xd5, 0x75, 0x5f, 0x75, 0x5d, 0x57, 0xf5, 0xff, 0x1f, 0xfc, 0x03,
   0x00, 0xf8, 0xff, 0xeb, 0xff, 0xea, 0xba, 0xbe, 0xfa, 0xbe, 0xaf, 0xfa,
   0xff, 0x3f, 0xfe, 0x01, 0x00, 0xf0, 0xff, 0xff, 0xff, 0xf7, 0x7f, 0xff,
   0xfd, 0xff, 0xff, 0xf5, 0xff, 0xff, 0xff, 0x00, 0x00, 0x00, 0xf0, 0xff,
   0xff, 0xff, 0xbf, 0xfe, 0xff, 0xff, 0xff, 0xff, 0xff, 0xff, 0xff, 0x00,
   0x10, 0x00, 0xe0, 0xff, 0xff, 0x7f, 0x7f, 0xff, 0xff, 0xff, 0xff, 0xff,
   0x3f, 0x00, 0x78, 0x00, 0x38, 0x00, 0xe0, 0xff, 0xff, 0xff, 0xbf, 0xff,
   0xff, 0xff, 0xff, 0xff, 0x7f, 0x00, 0x7c, 0x00, 0x78, 0x00, 0xe0, 0xff,
   0xff, 0x7f, 0x7f, 0xff, 0xff, 0xff, 0xff, 0xff, 0xff, 0xff, 0x7f, 0x00,
   0xfc, 0x00, 0xf0, 0xff, 0xff, 0xff, 0xbe, 0xff, 0xff, 0xff, 0xff, 0xff,
   0xff, 0xff, 0x7f, 0x00, 0xfe, 0x01, 0xf8, 0xff, 0xff, 0x7f, 0x5d, 0xff,
   0xff, 0xff, 0xff, 0xff, 0xff, 0xff, 0x7f, 0x00, 0xfe, 0xff, 0xff, 0xff,
   0xff, 0xff, 0xaa, 0xff, 0xff, 0xff, 0xff, 0xff, 0x00, 0xc0, 0x3f, 0x00,
   0xfc, 0xff, 0xff, 0xff, 0xff, 0xff, 0xd5, 0xff, 0xff, 0xff, 0xff, 0xff,
   0x01, 0xe0, 0x3f, 0x00, 0xf8, 0xff, 0xff, 0xff, 0xff, 0xff, 0xeb, 0xff,
   0xff, 0xff, 0xff, 0xff, 0xff, 0xff, 0x1f, 0x00, 0xf0, 0xff, 0xff, 0xff,
   0xff, 0xff, 0xff, 0xff, 0xff, 0xff, 0xff, 0xff, 0xff, 0xff, 0x0f, 0x00,
   0xe0, 0xff, 0xff, 0xff, 0xff, 0xff, 0xff, 0xff, 0xff, 0xff, 0xff, 0xff,
   0xff, 0xff, 0x07, 0x00, 0xc0, 0xff, 0xff, 0xff, 0xff, 0xff, 0xff, 0xff,
   0xff, 0xff, 0xff, 0xff, 0xff, 0x01, 0x00, 0x18, 0x80, 0xff, 0xff, 0xff,
   0xff, 0xff, 0xff, 0xff, 0xbf, 0xff, 0xff, 0xff, 0x7f, 0x00, 0x00, 0x3c,
   0x80, 0xff, 0xff, 0xff, 0xdf, 0xff, 0xff, 0xff, 0xdf, 0xff, 0xff, 0xff,
   0x7f, 0x00, 0x00, 0x7c, 0x80, 0xff, 0xff, 0xfb, 0xef, 0xff, 0xff, 0xff,
   0xaf, 0xff, 0xff, 0xff, 0x7f, 0x00, 0x00, 0xfe, 0x80, 0xff, 0xff, 0xf5,
   0xd7, 0xff, 0xff, 0xff, 0xdf, 0xff, 0xff, 0xff, 0x7f, 0x00, 0x00, 0xff,
   0x80, 0xff, 0xff, 0xea, 0xeb, 0xff, 0xff, 0xff, 0xaf, 0xff, 0xff, 0xff,
   0x7f, 0x00, 0x80, 0xff, 0x80, 0xff, 0xff, 0xf5, 0xd5, 0xff, 0xff, 0xf7,
   0x5f, 0xff, 0xff, 0xff, 0xff, 0x01, 0xc0, 0xff, 0x80, 0xff, 0xff, 0xea,
   0xeb, 0xff, 0xff, 0xeb, 0xaf, 0xfe, 0xba, 0xfe, 0xff, 0xff, 0xff, 0xff,
   0x80, 0xff, 0xff, 0xd5, 0xd5, 0x5f, 0xff, 0xf5, 0x55, 0x7d, 0x7d, 0xd5,
   0xff, 0xff, 0xff, 0xff, 0x80, 0xff, 0xff, 0xaa, 0xea, 0xaf, 0xfe, 0xfa,
   0xaa, 0xbf, 0xba, 0xaa, 0xff, 0xff, 0xff, 0xff, 0x80, 0xff, 0xff, 0x55,
   0xd5, 0x57, 0x7d, 0x7d, 0xf5, 0xdf, 0x75, 0xf5, 0xff, 0xff, 0xff, 0xff,
   0x80, 0xff, 0xff, 0xaa, 0xee, 0xab, 0xbe, 0xfe, 0xea, 0xef, 0xbb, 0xfa,
   0xff, 0xff, 0xff, 0xff, 0x80, 0xff, 0xff, 0x55, 0xdd, 0x77, 0x5f, 0xff,
   0xf7, 0xd7, 0x7d, 0xfd, 0xff, 0xff, 0xff, 0xff, 0x80, 0xff, 0xff, 0xba,
   0xae, 0xfb, 0xae, 0xea, 0xeb, 0xaf, 0xbe, 0xfe, 0xff, 0xff, 0xff, 0xff,
   0x80, 0xff, 0xff, 0x75, 0xdf, 0x77, 0x5f, 0xd5, 0xf7, 0x57, 0x7f, 0xff,
   0xff, 0xff, 0xff, 0xff, 0x80, 0xff, 0xff, 0xfa, 0xaf, 0xbb, 0xfe, 0xaf,
   0xeb, 0xee, 0xbf, 0xfe, 0xff, 0xff, 0xff, 0xff, 0x80, 0xff, 0xff, 0xf5,
   0xdf, 0x57, 0xfd, 0xd5, 0x77, 0xd5, 0x7f, 0xff, 0xff, 0xff, 0xff, 0xff,
   0x80, 0xff, 0xff, 0xfa, 0xbf, 0xab, 0xbe, 0xea, 0xab, 0xae, 0xab, 0xfe,
   0xff, 0xff, 0xff, 0xff, 0xc1, 0xff, 0xff, 0xf5, 0x5f, 0x57, 0x5d, 0xfd,
   0x57, 0x5f, 0x75, 0xff, 0xff, 0xff, 0xff, 0xff, 0xe3, 0xff, 0xff, 0xfb,
   0xbf, 0xff, 0xaa, 0xff, 0xaf, 0xbf, 0xba, 0xfe, 0xff, 0xff, 0xff, 0xff,
   0xff, 0xff, 0xff, 0xff, 0xff, 0xff, 0xff, 0xff, 0xff, 0xff, 0xfd, 0xff,
   0xff, 0xff, 0xff, 0xff, 0xff, 0xff, 0xff, 0xff, 0xff, 0xff, 0xff, 0xff,
   0xff, 0xff, 0xff, 0xff, 0xff, 0xff, 0xff, 0xff, 0xff, 0xff, 0xff, 0xff,
   0xff, 0xff, 0xff, 0xff, 0xff, 0xff, 0xff, 0xff, 0xff, 0xff, 0xff, 0xff,
   0xff, 0xff, 0xff, 0xff, 0xff, 0xff, 0xff, 0xff, 0xff, 0xff, 0xff, 0xff,
   0xff, 0xff, 0xff, 0xff, 0xff, 0xff, 0xff, 0xff, 0xff, 0xff, 0xff, 0xff,
   0xff, 0xff, 0xff, 0xff };
