#define bt_width 32
#define bt_height 32
static unsigned char bt_bits[] = {
   0xff, 0x5f, 0xf5, 0xff, 0xff, 0xab, 0xea, 0xff, 0x7f, 0x55, 0x55, 0xff,
   0xbf, 0xaa, 0xaa, 0xfe, 0x5f, 0x55, 0x55, 0xfd, 0xaf, 0xea, 0xaa, 0xfa,
   0x57, 0xd5, 0x55, 0xf5, 0xab, 0xea, 0xab, 0xea, 0x57, 0xd5, 0x57, 0xd5,
   0xab, 0xea, 0xae, 0xea, 0x55, 0xd7, 0x5d, 0xd5, 0xaa, 0xef, 0xba, 0xaa,
   0x55, 0xdf, 0x5d, 0xd5, 0xaa, 0xfe, 0xae, 0xaa, 0x55, 0xfd, 0x57, 0x55,
   0xaa, 0xfa, 0xab, 0xaa, 0x55, 0xf5, 0x55, 0x55, 0xaa, 0xfa, 0xab, 0xaa,
   0x55, 0xfd, 0x57, 0x55, 0xaa, 0xfe, 0xae, 0xaa, 0x55, 0xdf, 0x5d, 0xd5,
   0xab, 0xee, 0xba, 0xaa, 0x55, 0xd5, 0x5d, 0xd5, 0xab, 0xea, 0xae, 0xea,
   0x57, 0xd5, 0x57, 0xf5, 0xab, 0xea, 0xab, 0xea, 0x57, 0xd5, 0x55, 0xf5,
   0xaf, 0xea, 0xaa, 0xfa, 0x5f, 0x55, 0x55, 0xfd, 0xbf, 0xaa, 0xaa, 0xff,
   0xff, 0x55, 0xd5, 0xff, 0xff, 0xaf, 0xfa, 0xff };
