#define charge_width 32
#define charge_height 32
static unsigned char charge_bits[] = {
   0xff, 0xfb, 0xfe, 0xff, 0xff, 0x75, 0xfd, 0xff, 0xff, 0xfb, 0xfe, 0xff,
   0xff, 0x75, 0xfd, 0xff, 0xff, 0xfb, 0xfe, 0xff, 0xff, 0x75, 0xfd, 0xff,
   0xbf, 0xaa, 0xea, 0xff, 0x7f, 0x55, 0xf5, 0xff, 0xbf, 0xaa, 0xea, 0xff,
   0x55, 0xff, 0x57, 0xf5, 0xaa, 0xfe, 0xab, 0xea, 0x55, 0xff, 0x57, 0xf5,
   0xba, 0xfe, 0xeb, 0xeb, 0x7d, 0xff, 0xf7, 0xf7, 0xba, 0xfe, 0xeb, 0xab,
   0x7d, 0xff, 0xf7, 0x57, 0xba, 0xfe, 0xeb, 0xab, 0x7d, 0xfd, 0xf5, 0x5f,
   0xfa, 0xaa, 0xfa, 0xbf, 0xfd, 0x55, 0xf5, 0x5f, 0xfa, 0xab, 0xfe, 0xbf,
   0xfd, 0x55, 0xfd, 0x57, 0xfa, 0xaf, 0xff, 0xab, 0xfd, 0xdf, 0xff, 0x57,
   0xfa, 0xaf, 0xff, 0xab, 0xfd, 0xdf, 0xff, 0xf7, 0xaa, 0xae, 0xab, 0xea,
   0x55, 0xdf, 0x57, 0xf5, 0xaa, 0xae, 0xab, 0xea, 0xff, 0xdf, 0xff, 0xff,
   0xff, 0xaf, 0xff, 0xff, 0xff, 0xdf, 0xff, 0xff };
