#define f_width 32
#define f_height 32
static unsigned char f_bits[] = {
   0xff, 0xff, 0xff, 0xff, 0x57, 0x55, 0x55, 0xf5, 0xab, 0xaa, 0xaa, 0xea,
   0x57, 0xf5, 0x57, 0xf5, 0xab, 0xfa, 0xaf, 0xea, 0x57, 0x75, 0x55, 0xf5,
   0xab, 0xba, 0xaa, 0xea, 0x57, 0x75, 0x55, 0xf5, 0xab, 0xba, 0xaa, 0xea,
   0x57, 0xf5, 0x57, 0xf5, 0xab, 0xfa, 0xab, 0xea, 0x57, 0x75, 0x55, 0xf5,
   0xab, 0xba, 0xaa, 0xea, 0x57, 0x75, 0x55, 0xf5, 0xab, 0xba, 0xaa, 0xea,
   0x57, 0x55, 0x55, 0xf5, 0xab, 0xaa, 0xaa, 0xea, 0x77, 0xff, 0xff, 0xff,
   0xfb, 0xfe, 0xff, 0xff, 0x77, 0xff, 0xff, 0xff, 0xfb, 0xfe, 0xff, 0xff,
   0x77, 0xff, 0xff, 0xff, 0xfb, 0xfe, 0xff, 0xff, 0x77, 0xff, 0xff, 0xff,
   0xfb, 0xfe, 0xff, 0xff, 0x77, 0xff, 0xff, 0xff, 0xfb, 0xfe, 0xff, 0xff,
   0x77, 0xff, 0xff, 0xff, 0xfb, 0xfe, 0xff, 0xff, 0x77, 0xff, 0xff, 0xff,
   0xfb, 0xfe, 0xff, 0xff, 0x57, 0xff, 0xff, 0xff };
