#define pw_width 32
#define pw_height 32
static unsigned char pw_bits[] = {
   0xff, 0xaf, 0xfa, 0xff, 0xff, 0x55, 0xd5, 0xff, 0xff, 0xaa, 0xaa, 0xff,
   0x5f, 0xfd, 0x5f, 0xfd, 0xaf, 0xfe, 0xff, 0xfa, 0x57, 0xff, 0xff, 0xf5,
   0xab, 0xff, 0xff, 0xeb, 0xd7, 0xff, 0xff, 0xf7, 0xeb, 0xbb, 0xee, 0xef,
   0xf5, 0x75, 0xdd, 0xdf, 0xfb, 0xba, 0xae, 0xaf, 0x7d, 0x75, 0x5d, 0xdf,
   0xfa, 0xba, 0xbe, 0xbe, 0x7d, 0x7d, 0x5d, 0x5d, 0xbe, 0xbe, 0xbe, 0xbe,
   0x7d, 0x7d, 0x7d, 0x5d, 0xbe, 0xfe, 0xbf, 0xbe, 0x7d, 0xfd, 0x7f, 0x5d,
   0xba, 0xfa, 0xbf, 0xbe, 0x7d, 0xfd, 0x5f, 0xdf, 0xfa, 0xfa, 0xaf, 0xbe,
   0xf5, 0xd5, 0x57, 0xdf, 0xfb, 0xaa, 0xaa, 0xef, 0xf7, 0x55, 0xd5, 0xd7,
   0xeb, 0xab, 0xea, 0xeb, 0xd7, 0x5f, 0xfd, 0xf5, 0xaf, 0xff, 0xfe, 0xfa,
   0x5f, 0xff, 0x7f, 0xfd, 0xbf, 0xfa, 0xbf, 0xfe, 0x7f, 0x55, 0x55, 0xff,
   0xff, 0xab, 0xea, 0xff, 0xff, 0x5f, 0xf5, 0xff };
