#define s_width 32
#define s_height 32
static unsigned char s_bits[] = {
   0xff, 0xff, 0xff, 0xff, 0x57, 0x55, 0x55, 0xf5, 0xab, 0xaa, 0xaa, 0xfa,
   0x57, 0xfd, 0x55, 0xfd, 0xab, 0xfe, 0xab, 0xfe, 0x57, 0x5d, 0x55, 0xff,
   0xab, 0xae, 0xaa, 0xff, 0x57, 0x5d, 0xd5, 0xff, 0xab, 0xfe, 0xeb, 0xff,
   0x57, 0xfd, 0xd5, 0xff, 0xab, 0xaa, 0xab, 0xff, 0x57, 0xd5, 0x55, 0xff,
   0xab, 0xaa, 0xab, 0xfe, 0x57, 0xfd, 0x55, 0xfd, 0xab, 0xfe, 0xab, 0xfa,
   0x57, 0x55, 0x55, 0xf5, 0xab, 0xaa, 0xaa, 0xea, 0x77, 0xff, 0xff, 0xff,
   0xfb, 0xfe, 0xff, 0xff, 0x77, 0xff, 0xff, 0xff, 0xfb, 0xfe, 0xff, 0xff,
   0x77, 0xff, 0xff, 0xff, 0xfb, 0xfe, 0xff, 0xff, 0x77, 0xff, 0xff, 0xff,
   0xfb, 0xfe, 0xff, 0xff, 0x77, 0xff, 0xff, 0xff, 0xfb, 0xfe, 0xff, 0xff,
   0x77, 0xff, 0xff, 0xff, 0xfb, 0xfe, 0xff, 0xff, 0x77, 0xff, 0xff, 0xff,
   0xfb, 0xfe, 0xff, 0xff, 0x57, 0xff, 0xff, 0xff };
