#define set_width 32
#define set_height 32
static unsigned char set_bits[] = {
   0xff, 0xff, 0xff, 0xff, 0x5f, 0x55, 0xfd, 0xff, 0xbf, 0xaa, 0xfa, 0xff,
   0x5f, 0x55, 0xf7, 0xff, 0xbf, 0xbf, 0xee, 0xff, 0x5f, 0x7f, 0xdf, 0xff,
   0xbf, 0xbf, 0xbe, 0xff, 0x5f, 0x7f, 0x7f, 0xff, 0xbf, 0xbf, 0xfe, 0xfe,
   0x5f, 0x7f, 0xff, 0xfd, 0xbf, 0xbf, 0xfe, 0xfb, 0x5f, 0x55, 0x55, 0xfd,
   0xbf, 0xaa, 0xaa, 0xfa, 0x5f, 0x55, 0x55, 0xfd, 0xbf, 0xff, 0xff, 0xfa,
   0x5f, 0xff, 0xff, 0xfd, 0xbf, 0xff, 0xff, 0xfa, 0x5f, 0x55, 0x55, 0xfd,
   0xbf, 0xaa, 0xaa, 0xfa, 0x5f, 0x55, 0x55, 0xfd, 0xbf, 0xff, 0xff, 0xfa,
   0x5f, 0xff, 0xff, 0xfd, 0xbf, 0xff, 0xff, 0xfa, 0x5f, 0x55, 0x55, 0xfd,
   0xbf, 0xaa, 0xaa, 0xfa, 0x5f, 0x55, 0x55, 0xfd, 0xbf, 0xff, 0xff, 0xfa,
   0x5f, 0xff, 0xff, 0xfd, 0xbf, 0xff, 0xff, 0xfa, 0x5f, 0x55, 0x55, 0xfd,
   0xbf, 0xaa, 0xaa, 0xfa, 0xff, 0xff, 0xff, 0xff };
